icons/svg/language-csharp.svg

﻿<?xml version="1.0" encoding="utf-8"?>
<!DOCTYPE svg PUBLIC "-//W3C//DTD SVG 1.1//EN" "http://www.w3.org/Graphics/SVG/1.1/DTD/svg11.dtd">
<svg xmlns="http://www.w3.org/2000/svg" xmlns:xlink="http://www.w3.org/1999/xlink" version="1.1" baseProfile="full" width="24" height="24" viewBox="0 0 24.00 24.00" enable-background="new 0 0 24.00 24.00" xml:space="preserve">
	<path fill="#000000" fill-opacity="1" stroke-width="0.2" stroke-linejoin="round" d="M 11.4958,15.9733L 11.9122,18.4089C 11.6488,18.5495 11.234,18.6811 10.6678,18.8038C 10.1016,18.9265 9.43134,18.9919 8.65696,19C 6.45289,18.9561 4.79291,18.3022 3.67703,17.0384C 2.56114,15.7746 2.00213,14.1646 2,12.2082C 2.0479,9.90327 2.7221,8.12917 4.0226,6.88589C 5.32311,5.64261 6.96252,5.01398 8.94085,5C 9.69394,5.00705 10.3406,5.07051 10.8807,5.19038C 11.4209,5.31025 11.8215,5.44422 12.0825,5.59229L 11.4769,8.0845L 10.4431,7.738C 10.0382,7.64109 9.57526,7.59033 9.05441,7.58574C 7.89205,7.5841 6.93314,7.95111 6.17769,8.68675C 5.42223,9.42238 5.0311,10.5364 5.00429,12.0289C 5.01414,13.3881 5.37294,14.4547 6.08069,15.2287C 6.78843,16.0028 7.78598,16.397 9.07333,16.4116L 10.3981,16.2895C 10.8279,16.2103 11.1938,16.1049 11.4958,15.9733 Z M 13.8913,19L 14.5248,15L 13.0248,15L 13.3416,13L 14.8416,13L 15.1584,11L 13.6584,11L 13.9752,9L 15.4751,9L 16.1087,5.00001L 18.1087,5.00001L 17.4751,9L 18.4752,9L 19.1087,5L 21.1087,5L 20.4752,9L 21.9752,9L 21.6584,11L 20.1584,11L 19.8416,13L 21.3416,13L 21.0248,15L 19.5248,15L 18.8913,19L 16.8913,19L 17.5248,15L 16.5248,15L 15.8913,19L 13.8913,19 Z M 16.8416,13L 17.8416,13L 18.1584,11L 17.1584,11L 16.8416,13 Z "/>
</svg>

<svg xmlns="http://www.w3.org/2000/svg" version="1.1" baseProfile="full" width="24" height="24" viewBox="0 0 24.00 24.00" xml:space="preserve"><path fill="#000" fill-opacity="1" stroke-width=".2" stroke-linejoin="round" d="M11.496 15.973l.416 2.436c-.263.14-.678.27-1.244.394-.566.123-1.237.188-2.01.196-2.205-.044-3.865-.698-4.98-1.962C2.56 15.775 2 14.165 2 12.208c.048-2.305.722-4.08 2.023-5.322C5.323 5.643 6.963 5.014 8.94 5c.754.007 1.4.07 1.94.19s.94.254 1.202.402l-.605 2.493-1.034-.347c-.405-.097-.868-.148-1.39-.152-1.16-.002-2.12.365-2.875 1.1-.756.736-1.147 1.85-1.174 3.343.01 1.358.37 2.425 1.077 3.2.708.773 1.706 1.167 2.993 1.182l1.325-.122c.43-.08.796-.185 1.098-.317zM13.89 19l.635-4h-1.5l.317-2h1.5l.316-2h-1.5l.317-2h1.5l.634-4h2l-.635 4h1l.634-4h2l-.635 4h1.5l-.317 2h-1.5l-.316 2h1.5l-.317 2h-1.5l-.634 4h-2l.635-4h-1l-.634 4h-2zm2.952-6h1l.316-2h-1l-.316 2z"/></svg>
